X:5
T:Land's End
R:slip jig
M:9/8
L:1/8
K:Dmin
D3 DCA, CDF|~G3 GFG Acd|f3 dcA cAF|G2G GFG AFE|
D3 DCA, CDF|~G3 GFG Acd|f3 dcA cAF|~G3 GFG Acd||
f3 dcA cdf|~e3 ede gec|f3 dcA cAF|G3 GFG Acd|
f3 dcA cdf|~e3 ede g3|fdc dcA cAF|G2G GFG AFE|| 


